packages/dnb-ui-lib/assets/icons/bankid_with_qr.svg

<svg width="16" height="16" viewBox="0 0 16 16" fill="none" xmlns="http://www.w3.org/2000/svg">
<g clip-path="url(#clip0)">
<path fill-rule="evenodd" clip-rule="evenodd" d="M1.5 1.25C1.4337 1.25 1.37011 1.27634 1.32322 1.32322C1.27634 1.37011 1.25 1.4337 1.25 1.5V4C1.25 4.41421 0.914214 4.75 0.5 4.75C0.0857864 4.75 -0.25 4.41421 -0.25 4V1.5C-0.25 1.03587 -0.0656254 0.590752 0.262563 0.262563C0.590752 -0.0656254 1.03587 -0.25 1.5 -0.25H4C4.41421 -0.25 4.75 0.0857864 4.75 0.5C4.75 0.914214 4.41421 1.25 4 1.25H1.5ZM3.5 3C3.22386 3 3 3.22386 3 3.5V5.5C3 5.77614 3.22386 6 3.5 6H5.5C5.77614 6 6 5.77614 6 5.5V3.5C6 3.22386 5.77614 3 5.5 3H3.5ZM4 5V4H5V5H4ZM3.5 10C3.22386 10 3 10.2239 3 10.5V12.5C3 12.7761 3.22386 13 3.5 13H5.5C5.77614 13 6 12.7761 6 12.5V10.5C6 10.2239 5.77614 10 5.5 10H3.5ZM4 12V11H5V12H4ZM10 3.5C10 3.22386 10.2239 3 10.5 3H12.5C12.7761 3 13 3.22386 13 3.5V5.5C13 5.77614 12.7761 6 12.5 6H10.5C10.2239 6 10 5.77614 10 5.5V3.5ZM11 4V5H12V4H11ZM3.5 8C3.22386 8 3 8.22386 3 8.5C3 8.77614 3.22386 9 3.5 9H7V9.5C7 9.77614 7.22386 10 7.5 10C7.77614 10 8 9.77614 8 9.5V8.5C8 8.22386 7.77614 8 7.5 8H3.5ZM9.5 9C9.77614 9 10 9.22386 10 9.5V12H12V10H11.5C11.2239 10 11 9.77614 11 9.5C11 9.22386 11.2239 9 11.5 9H12.5C12.7761 9 13 9.22386 13 9.5V12.5C13 12.7761 12.7761 13 12.5 13H9.5C9.22386 13 9 12.7761 9 12.5V9.5C9 9.22386 9.22386 9 9.5 9ZM8 11.5C8 11.2239 7.77614 11 7.5 11C7.22386 11 7 11.2239 7 11.5V12.5C7 12.7761 7.22386 13 7.5 13C7.77614 13 8 12.7761 8 12.5V11.5ZM7.5 3C7.77614 3 8 3.22386 8 3.5V6H8.5C8.77614 6 9 6.22386 9 6.5C9 6.77614 8.77614 7 8.5 7H7.5C7.22386 7 7 6.77614 7 6.5V3.5C7 3.22386 7.22386 3 7.5 3ZM10.5 7C10.2239 7 10 7.22386 10 7.5C10 7.77614 10.2239 8 10.5 8H12.5C12.7761 8 13 7.77614 13 7.5C13 7.22386 12.7761 7 12.5 7H10.5ZM12 -0.25C11.5858 -0.25 11.25 0.0857864 11.25 0.5C11.25 0.914214 11.5858 1.25 12 1.25H14.5C14.5663 1.25 14.6299 1.27634 14.6768 1.32322C14.7237 1.37011 14.75 1.4337 14.75 1.5V4C14.75 4.41421 15.0858 4.75 15.5 4.75C15.9142 4.75 16.25 4.41421 16.25 4V1.5C16.25 1.03587 16.0656 0.590751 15.7374 0.262563C15.4092 -0.0656252 14.9641 -0.25 14.5 -0.25H12ZM15.5 11.25C15.9142 11.25 16.25 11.5858 16.25 12V14.5C16.25 14.9641 16.0656 15.4092 15.7374 15.7374C15.4092 16.0656 14.9641 16.25 14.5 16.25H12C11.5858 16.25 11.25 15.9142 11.25 15.5C11.25 15.0858 11.5858 14.75 12 14.75H14.5C14.5663 14.75 14.6299 14.7237 14.6768 14.6768C14.7237 14.6299 14.75 14.5663 14.75 14.5V12C14.75 11.5858 15.0858 11.25 15.5 11.25ZM1.25 12C1.25 11.5858 0.914214 11.25 0.5 11.25C0.0857864 11.25 -0.25 11.5858 -0.25 12V14.5C-0.25 14.9641 -0.0656252 15.4092 0.262563 15.7374C0.590751 16.0656 1.03587 16.25 1.5 16.25H4C4.41421 16.25 4.75 15.9142 4.75 15.5C4.75 15.0858 4.41421 14.75 4 14.75H1.5C1.4337 14.75 1.37011 14.7237 1.32322 14.6768C1.27634 14.6299 1.25 14.5663 1.25 14.5V12Z" fill="#333333"/>
</g>
<defs>
<clipPath id="clip0">
<rect width="16" height="16" fill="white"/>
</clipPath>
</defs>
</svg>

<svg width="16" height="16" viewBox="0 0 16 16" fill="none" xmlns="http://www.w3.org/2000/svg"><g clip-path="url(#clip0)"><path fill-rule="evenodd" clip-rule="evenodd" d="M1.5 1.25a.25.25 0 00-.25.25V4a.75.75 0 01-1.5 0V1.5A1.75 1.75 0 011.5-.25H4a.75.75 0 010 1.5H1.5zM3.5 3a.5.5 0 00-.5.5v2a.5.5 0 00.5.5h2a.5.5 0 00.5-.5v-2a.5.5 0 00-.5-.5h-2zM4 5V4h1v1H4zm-.5 5a.5.5 0 00-.5.5v2a.5.5 0 00.5.5h2a.5.5 0 00.5-.5v-2a.5.5 0 00-.5-.5h-2zm.5 2v-1h1v1H4zm6-8.5a.5.5 0 01.5-.5h2a.5.5 0 01.5.5v2a.5.5 0 01-.5.5h-2a.5.5 0 01-.5-.5v-2zm1 .5v1h1V4h-1zM3.5 8a.5.5 0 000 1H7v.5a.5.5 0 001 0v-1a.5.5 0 00-.5-.5h-4zm6 1a.5.5 0 01.5.5V12h2v-2h-.5a.5.5 0 010-1h1a.5.5 0 01.5.5v3a.5.5 0 01-.5.5h-3a.5.5 0 01-.5-.5v-3a.5.5 0 01.5-.5zM8 11.5a.5.5 0 00-1 0v1a.5.5 0 001 0v-1zM7.5 3a.5.5 0 01.5.5V6h.5a.5.5 0 010 1h-1a.5.5 0 01-.5-.5v-3a.5.5 0 01.5-.5zm3 4a.5.5 0 000 1h2a.5.5 0 000-1h-2zM12-.25a.75.75 0 000 1.5h2.5a.25.25 0 01.25.25V4a.75.75 0 001.5 0V1.5A1.75 1.75 0 0014.5-.25H12zm3.5 11.5a.75.75 0 01.75.75v2.5a1.75 1.75 0 01-1.75 1.75H12a.75.75 0 010-1.5h2.5a.25.25 0 00.25-.25V12a.75.75 0 01.75-.75zM1.25 12a.75.75 0 00-1.5 0v2.5a1.75 1.75 0 001.75 1.75H4a.75.75 0 000-1.5H1.5a.25.25 0 01-.25-.25V12z" fill="#333"/></g><defs/></svg>
